X:14264
T:Rickett's Hornpipe
M:2/4
L:1/16
K:D
(3ABc|dcdA FAdf|edcB A2g2|fgaf gfed|edcB Agfe|!
dcdA FAdf|edcB A2g2|fafd egec|d2dd d2:|!
|:fg|afaf d2ga|bgbg e2fg|afba gfed|edcB Agfe|!
dcdA FAdf|edcB A2g2|fafd egec|d2dd d2:|!
